DSAA
72 37
0 355
-90 90
-155589871.3 124202423.9
# SHSynth 球谐综合结果  系数=shkit_coeffs.gfc  nmax=12  高斯平滑=500 km  物理量=ewh
-45135005.7 -45135005.7 -45135005.7 -45135005.7 -45135005.7 -45135005.7 -45135005.7 -45135005.7 -45135005.7 -45135005.7 -45135005.7 -45135005.7 -45135005.7 -45135005.7 -45135005.7 -45135005.7 -45135005.7 -45135005.7 -45135005.7 -45135005.7 -45135005.7 -45135005.7 -45135005.7 -45135005.7 -45135005.7 -45135005.7 -45135005.7 -45135005.7 -45135005.7 -45135005.7 -45135005.7 -45135005.7 -45135005.7 -45135005.7 -45135005.7 -45135005.7 -45135005.7 -45135005.7 -45135005.7 -45135005.7 -45135005.7 -45135005.7 -45135005.7 -45135005.7 -45135005.7 -45135005.7 -45135005.7 -45135005.7 -45135005.7 -45135005.7 -45135005.7 -45135005.7 -45135005.7 -45135005.7 -45135005.7 -45135005.7 -45135005.7 -45135005.7 -45135005.7 -45135005.7 -45135005.7 -45135005.7 -45135005.7 -45135005.7 -45135005.7 -45135005.7 -45135005.7 -45135005.7 -45135005.7 -45135005.7 -45135005.7 -45135005.7
-33790323.07 -33015544.26 -32345473.28 -31783074.36 -31330284.37 -30988082.13 -30756572.93 -30635083.94 -30622265.63 -30716194.34 -30914470.56 -31214308.31 -31612611.05 -32106030.42 -32691005.41 -33363780.26 -34120401.27 -34956693.85 -35868222.68 -36850239 -37897620.15 -39004807.14 -40165746.27 -41373840.72 -42621917.23 -43902212.36 -45206381 -46525528.78 -47850268.02 -49170795.74 -50476990.47 -51758524.13 -53004984.03 -54206000.31 -55351374.04 -56431201.77 -57435993.25 -58356779.79 -59185211.98 -59913646.23 -60535220.58 -61043920.59 -61434636.71 -61703214.36 -61846497.9 -61862369.38 -61749782.22 -61508789.84 -61140568.2 -60647431.4 -60032838.52 -59301390.01 -58458812.01 -57511926.68 -56468607.39 -55337717.58 -54129032.89 -52853146.54 -51521358.65 -50145550.68 -48738046.73 -47311464.3 -45878556.95 -44452052.48 -43044489.89 -41668059.13 -40334447.34 -39054695.51 -37839069.31 -36696947.22 -35636729.15 -34665767.62
-24193107.41 -22848217.5 -21729985.47 -20838061.32 -20169109.14 -19717193.74 -19474244.08 -19430576.36 -19575455.73 -19897672.4 -20386104.77 -21030239.83 -21820620.16 -22749187.68 -23809497.8 -24996783.8 -26307860.35 -27740866.41 -29294860.54 -30969294.6 -32763403.73 -34675559.15 -36702636.18 -38839449.69 -41078305.09 -43408703.46 -45817226.11 -48287607.81 -50800991.14 -53336338.06 -55870961.53 -58381130.79 -60842699.49 -63231708 -65524917.27 -67700243.36 -69737074.8 -71616469.84 -73321244.21 -74835970.53 -76146918.07 -77241964.29 -78110508.44 -78743412.85 -79132990.65 -79273050.01 -79158996.67 -78787988.68 -78159130.74 -77273690.97 -76135320.38 -74750254.44 -73127477.34 -71278831.98 -69219062.77 -66965782.22 -64539357.37 -61962716.13 -59261077.16 -56461610.11 -53593034.44 -50685166.91 -47768428.33 -44873321.3 -42029891.46 -39267186.2 -36612725.69 -34092002.51 -31728026.42 -29540930.82 -27547656.14 -25761723.33
-16922147.2 -15221383.44 -13886432.11 -12908369.12 -12272167.68 -11957533.79 -11939927.19 -12191747.89 -12683663.25 -13386041.09 -14270439.26 -15311082.71 -16486239.08 -17779387.56 -19180069.13 -20684313.13 -22294558.82 -24019029.21 -25870564.93 -27864982.36 -30019073.92 -32348413.88 -34865162.03 -37576067.28 -40480861.01 -43571196.68 -46830240.44 -50232952.67 -53747028.64 -57334397.16 -60953116.09 -64559462.71 -68110000.13 -71563411.72 -74881932.89 -78032268.24 -80985952.96 -83719190.25 -86212259.72 -88448636.73 -90413984.57 -92095178.58 -93479498.28 -94554086.41 -95305729.76 -95720974.25 -95786549.65 -95490051.96 -94820812.17 -93770869.88 -92335965.82 -90516469.49 -88318165.14 -85752833.31 -82838584.01 -79599921.02 -76067540.93 -72277892.03 -68272532.52 -64097334.1 -59801574.36 -55436953.31 -51056559 -46713799.03 -42461310.5 -38349862.9 -34427274.47 -30737370.22 -27319017.48 -24205278.58 -21422720.05 -18990912.54
-12317277.1 -10442812.94 -9082440.859 -8216383.883 -7814914.615 -7839518.639 -8244345.414 -8977955.539 -9985385.351 -11210544.93 -12598933.45 -14100593.84 -15673145.23 -17284645.91 -18915975.46 -20562405.54 -22234067.11 -23955118.62 -25761559.6 -27697796.51 -29812224.26 -32152215.99 -34758998.41 -37662921.1 -40879605.16 -44407380.78 -48226302.18 -52298868.95 -56572399.14 -60982808.26 -65459373.05 -69929927.15 -74325872.06 -78586409.07 -82661509.52 -86513326.95 -90115985.48 -93453912.64 -96519080.13 -99307639.8 -101816477.3 -104040155.5 -105968605.6 -107585772.8 -108869277.2 -109791027.8 -110318647 -110417521.2 -110053283.6 -109194527.5 -107815548.4 -105898904.9 -103437585.4 -100436587.4 -96913767.07 -92899898.73 -88437982.8 -83581936.44 -78394859.98 -72947088.01 -67314201.14 -61575111.55 -55810265.63 -50099952.12 -44522678.65 -39153582.42 -34062864.78 -29314270.37 -24963657.6 -21057722.78 -17632942.64 -14714791.76
-10473543.87 -8541765.667 -7269156.116 -6627098.742 -6572801.18 -7050462.382 -7992848.226 -9323287.489 -10958168.38 -12810075.39 -14791702.75 -16820576.38 -18824411.45 -20746677.05 -22551710.5 -24228605.1 -25793136.01 -27287194.19 -28775523.63 -30339929.45 -32071469.77 -34061403.16 -36391812.47 -39126863.25 -42305600.65 -45937060.53 -49998277.98 -54435518.68 -59168733.12 -64098851.56 -69117138.61 -74115478.12 -78996244.89 -83680413.93 -88112792.2 -92263707.41 -96127068.47 -99715301.01 -103052133.1 -106164467.3 -109074587.1 -111793733 -114317720 -116624853.8 -118676042 -120416759 -121780431.8 -122692845.4 -123077251.3 -122859921.2 -121975869.4 -120374365.6 -118023738 -114914908 -111063177.5 -106508028.7 -101311038 -95552337.24 -89326268.57 -82736905.45 -75893962.06 -68909361.95 -61894488.85 -54957977.21 -48203848.4 -41729837.09 -35625829.29 -29972398.71 -24839457.82 -20285040.03 -16354221.24 -13078195.51
-11266377.59 -9303537.318 -8132627.557 -7723042.794 -8024439.545 -8967705.328 -10466817.88 -12421301.77 -14719156.32 -17240438.23 -19861934.51 -22463360.2 -24935179.68 -27187565.4 -29159388.81 -30825734.26 -32202406.92 -33346293.26 -34351110.26 -35338844.88 -36447839.79 -37818896.3 -39580910.43 -41837494.08 -44655861.1 -48059064.17 -52022478.55 -56475191.44 -61306582.05 -66377795.97 -71537052.94 -76636920.88 -81551078.22 -86187910.28 -90498683.36 -94478976.68 -98163313.55 -101614194.6 -104907680.4 -108118089.1 -111304217.3 -114498876.7 -117702667.5 -120882030.1 -123970942.1 -126875291.5 -129478988.3 -131651192.1 -133254421.4 -134153548 -134225595.6 -133369840.3 -131517156.4 -128637162.6 -124741792.4 -119884517.3 -114155416 -107673231.9 -100576124.1 -93012788.53 -85135098.34 -77092666.41 -69029111.38 -61079525.07 -53368692.08 -46009842.59 -39103914.73 -32739330.91 -26992155.48 -21926313.17 -17593455.06 -14032153.45
-14419647.15 -12354938.92 -11201023.17 -10936407.2 -11510000.14 -12842367.76 -14829558.48 -17347952.01 -20258840.03 -23412445.66 -26652240.72 -29821046.1 -32770094.35 -35371080.25 -37529742.23 -39198375.02 -40384365.23 -41152477.41 -41619930.64 -41944806.87 -42309540.42 -42901851.07 -43895464.5 -45432517.91 -47609006.37 -50464283.43 -53975592.32 -58058716.55 -62575751.16 -67350361.29 -72189600.02 -76909665.13 -81361468.57 -85451237.32 -89151981.84 -92503508.69 -95601183.36 -98576070.87 -101570669.7 -104714839.5 -108105775.6 -111794414.2 -115778974.2 -120004901.8 -124369564.7 -128729770.3 -132910560.4 -136714592.4 -139932390.3 -142354341.6 -143785100 -144059947.5 -143061112.8 -140730847.4 -137078006.7 -132176249 -126154267.8 -119180699.8 -111447496 -103155165.3 -94501762.1 -85675681.09 -76851158.33 -68185244.24 -59815685.58 -51859976.59 -44416200.67 -37565938.58 -31378674.78 -25916285.34 -21235830.36 -17389256.58
-19608396.28 -17296490.27 -16002350.05 -15726972.21 -16423501.38 -18000417.49 -20331447.15 -23267484.73 -26645982.55 -30295748.27 -34038486.36 -37690881.38 -41071246.15 -44012684.22 -46381453.33 -48096368.35 -49143899.01 -49584478.33 -49547923.17 -49218745 -48814429.94 -48560795.21 -48668156.11 -49310708.06 -50610056.7 -52623030.97 -55334181.53 -58654398.73 -62427978.47 -66450180.83 -70495334.89 -74352258.8 -77860490.36 -80939154.72 -83601285.8 -85949970.11 -88157526.23 -90433226.17 -92987283.99 -95998467.03 -99590332.08 -103817998.9 -108664716.7 -114045853.6 -119817358.6 -125785978.3 -131719393.5 -137355873.1 -142414690.7 -146609676.5 -149667971.7 -151353925.5 -151494799.7 -150002221 -146882951.9 -142235254.3 -136231863.9 -129095032.4 -121070963.7 -112409460.7 -103350848.7 -94118556.01 -84914095.43 -75912138.41 -67255802.11 -59054354.98 -51385903.09 -44306035.78 -37860785.65 -32099963.87 -27086090.04 -22895192.79
-26556856.53 -23835634.31 -22221792.4 -21751484.62 -22383706.43 -24008006.4 -26466879.52 -29582168.48 -33174299.79 -37068224.78 -41087775.87 -45046580.79 -48745448.25 -51982675.47 -54577170.88 -56398026.4 -57390986.23 -57593123.49 -57131093.19 -56203622.64 -55053325.09 -53934971.81 -53086568.97 -52706672.63 -52937991.21 -53855348.96 -55456647.19 -57658174.28 -60298592.3 -63156741.19 -65985567.8 -68558575.77 -70718812.81 -72416944.01 -73726680.47 -74832523.03 -75993670.04 -77495105.81 -79599337.31 -82509465.18 -86348307.4 -91152365.04 -96875991.27 -103400700.1 -110545923.8 -118079140.1 -125724505.2 -133170369.6 -140077821.6 -146094119.6 -150874892.9 -154115937 -155589871.3 -155177777.4 -152884841.3 -148833702.4 -143237786.9 -136364689.6 -128502165.6 -119935222.6 -110935028.1 -101753869 -92619017.93 -83722263.37 -75207867.23 -67165686.37 -59635720.21 -52625905.18 -46139125.39 -40200997.01 -34878772.41 -30284026.34
-35078171.09 -31850554.58 -29778647.5 -28942959.97 -29308425.55 -30738718.16 -33037833.99 -35999405.96 -39441663.54 -43214528.38 -47180454.7 -51184085.02 -55030723.85 -58488279.93 -61315405.88 -63306467.66 -64337087.21 -64394408.33 -63582642.99 -62103557.92 -60219651.62 -58211960.97 -56343470.32 -54833848.88 -53844579.77 -53469179.48 -53723742.98 -54538232.86 -55755381.02 -57147025.07 -58453933.61 -59445342.99 -59983220.48 -60070032.37 -59861874.67 -59640772.27 -59755372.01 -60550593.83 -62308574.84 -65215185.27 -69353534.16 -74715347.59 -81217732.3 -88716505.89 -97013723.53 -105861485.5 -114964804.9 -123985191 -132546736.9 -140248638.1 -146689532.9 -151506171.2 -154421050 -155285045.1 -154098365.3 -151000153 -146230902.4 -140084234.1 -132867371.7 -124881074.4 -116415780.6 -107750852.5 -99144369.06 -90810671.8 -82894521.96 -75456424.43 -68480271.48 -61904754.28 -55669770.92 -49762988.21 -44251267.59 -39285916.28
-45024399.98 -41334700.7 -38763268.54 -37439748.89 -37339041.37 -38301175.27 -40095450.83 -42498913.09 -45352022.66 -48566644.15 -52086669.36 -55825651.89 -59616055.49 -63197137.8 -66248948.88 -68459251.4 -69597638.69 -69570472.93 -68439647.14 -66402510.82 -63743771.53 -60777947.68 -57800398.41 -55056840.25 -52729922.56 -50933213.23 -49702800.87 -48984901.04 -48629064.71 -48402744.16 -48038240.76 -47308050.01 -46106872.43 -44508646.7 -42772249.82 -41289241.31 -40491903.34 -40756776.67 -42338617.39 -45352473.46 -49797415.47 -55598061.46 -62638207.53 -70773121.52 -79823324.17 -89562036.29 -99706948.66 -109919558.8 -119810608.7 -128952314.4 -136903123.3 -143250538.3 -147668155.2 -149969735.7 -150137098 -148307502.2 -144726511.4 -139690581.6 -133506483.6 -126479525.2 -118920297.4 -111146548.7 -103462047.9 -96113427.95 -89244764.54 -82875151.54 -76914299.36 -71213320.91 -65633549.22 -60111429.97 -54700818.63 -49580741.78
-56163782.15 -52231970.28 -49241230.19 -47372494.86 -46625615.86 -46837900.61 -47766900.43 -49198520.56 -51025713.98 -53257525.31 -55955311.46 -59130898.16 -62659262.86 -66248559.46 -69481321.54 -71909173.99 -73163691.38 -73043912.26 -71553808.3 -68883497.6 -65348004.03 -61309846.08 -57112360.66 -53039690.64 -49302595.93 -46036087.38 -43293283.6 -41031004.16 -39099088.05 -37255311.01 -35222068.77 -32780109.65 -29869364.18 -26652949.93 -23508827.21 -20943311.89 -19457526.99 -19421640.78 -21007907.11 -24202997.36 -28879885.94 -34882862.35 -42080791.85 -50369978.4 -59639825.57 -69731178.3 -80411130.11 -91369115.48 -102225242.4 -112543521.4 -121854427.2 -129697578.4 -135685883.3 -139572812.9 -141292213.1 -140949366.8 -138769498.8 -135035612.3 -130050702.2 -124136338.9 -117647885.7 -110971300.1 -104479902.7 -98461324.19 -93050649.91 -88206834.94 -83746665.33 -79421756.4 -75008292.64 -70381984.26 -65562957.98 -60724652.42
-68044287.66 -64234112.91 -61005445.96 -58593959.49 -57055091.46 -56267433.65 -56020916 -56147019.92 -56618936.1 -57563056.81 -59172022.44 -61563351.44 -64655034.82 -68117978.38 -71426006.6 -73980893.83 -75262745.05 -74952692.36 -72991314.91 -69562737.21 -65020645.78 -59789649.02 -54277662.82 -48821942.85 -43669851.16 -38977519.64 -34806065.59 -31108127.61 -27718193.71 -24373096.62 -20782259.01 -16740960.55 -12247880.81 -7570847.601 -3216945.116 196210.8507 2121307.813 2236539.43 505983.6322 -2877149.089 -7626665.105 -13503162.03 -20388136.94 -28268228.47 -37158185.06 -47017484.95 -57702492.83 -68960226.1 -80442478.6 -91720052.75 -102299010.4 -111658110.6 -119318700.1 -124930102 -128331244.1 -129556505.3 -128788731.5 -126297324 -122403993.6 -117487660.3 -111998664.7 -106436678.7 -101271642.6 -96833747.38 -93229378.11 -90330330.15 -87841608.72 -85411496.29 -82735409.34 -79624589.16 -76038787.24 -72093665.62
-79910778.55 -76636200.36 -73391240.3 -70474889.59 -68042978.53 -66077773.8 -64460652.87 -63109391.12 -62094114.47 -61653892.71 -62094292.2 -63615829.17 -66160956.9 -69354702.24 -72565292.43 -75057106.22 -76175176.86 -75497229.14 -72909557.71 -68594369.13 -62946535.01 -56457694.43 -49609163.01 -42801443.46 -36324394.58 -30351558.98 -24937075.87 -20006903.46 -15357995.84 -10692580.45 -5706463.032 -220476.7082 5691668.466 11644398.96 16999036.64 21038769.75 23196786.69 23237066.64 21300918.93 17796233.42 13187467.09 7794782.655 1698802.93 -5218993.458 -13147085.07 -22210279.75 -32394597.15 -43537553.64 -55347259.9 -67414304.59 -79216012.35 -90144196.18 -99581982.98 -107016021.1 -112133994.9 -114859855.1 -115321735.6 -113793833.2 -110661932.5 -106424340.5 -101690034 -97121234.69 -93306119.36 -90609258.48 -89080027.1 -88472558.14 -88363901.67 -88302085.37 -87913499.08 -86945016.81 -85267095.37 -82876943.74
-90717277.67 -88321587.91 -85245621.52 -81866288.76 -78489605.78 -75268342.43 -72236241.55 -69433370.78 -67028822.89 -65345051.9 -64752098.45 -65482962.7 -67468560.43 -70277655.21 -73190490.23 -75372842.59 -76081380.71 -74830582.14 -71476161.16 -66203902.98 -59443171.4 -51743280.25 -43654130.62 -35640029.91 -28033871.33 -21019786.26 -14627148.09 -8729960.802 -3064132.734 2714758.465 8920889.411 15692598.48 22864329.41 29924916.87 36110641.96 40624709.74 42905846.97 42827044.02 40723353.19 37225881.15 32978840.46 28378621.35 23457395.92 17947379 11461661.47 3678789.733 -5552364.583 -16194890.7 -28041456.77 -40716395.37 -53661680.12 -66152802.56 -77386753.18 -86631776.6 -93375295.28 -97402258.14 -98786404.98 -97836462.45 -95053982.4 -91117073.28 -86847176.16 -83103396.56 -80600721.37 -79723841.69 -80439313.93 -82361007.96 -84929464.34 -87598628.6 -89936113.52 -91622168.62 -92410243.97 -92125078.06
-99238503.81 -97894648.72 -95077759.07 -91259483.98 -86936054.63 -82483072.8 -78133896.03 -74075371.21 -70566324.01 -67970125.99 -66657843.85 -66830384.11 -68361982.38 -70753683.9 -73223168.41 -74891115.43 -74989957.42 -73026090.94 -68856524.7 -62675263.23 -54930406.27 -46205741.54 -37100867.63 -28134001.42 -19676675.32 -11917187.48 -4846602.944 1732005.592 8160513.845 14836254.62 22076649.67 29965330.45 38235032.67 46252593.69 53147637.76 58068348.47 60477441.43 60358828 58225896.1 54909239.42 51214066.56 47608795.65 44087816.79 40250761.82 35522398.29 29379060.56 21482394.11 11712359.79 162461.6003 -12842412.61 -26708536.7 -40578194.73 -53434550.51 -64297551.99 -72431531.89 -77474260.7 -79455045.61 -78742918.09 -75988889.35 -72081825.15 -68074916.19 -65028422.28 -63776703.42 -64713018.04 -67712979.84 -72249222.1 -77630519.12 -83221920.43 -88531516.11 -93161451.78 -96724549 -98840204.8
-104257742.5 -103927875.5 -101348531.4 -97097283.67 -91875826.62 -86303483.86 -80834245.07 -75811463.76 -71571123.45 -68479230.51 -66851538.73 -66798903.62 -68098011.58 -70172009.82 -72199936.96 -73307498.52 -72762929.89 -70115724.91 -65252079.38 -58373918.01 -49925354.1 -40492360.17 -30695709.52 -21090485.58 -12081137.93 -3860231.696 3619196.629 10626232.53 17580793.34 24929347.6 32985524.17 41774107.92 50933323.39 59730996.34 67224065.45 72536475.07 75165303.41 75184931.62 73239758.08 70304053.99 67304097.24 64773990.11 62699181.64 60595796.77 57746844.21 53452319.6 47186539.28 38653830.44 27809389.57 14906708.25 560878.6757 -14248290.2 -28301932.34 -40385613.24 -49555466.15 -55315865.39 -57662184.45 -57028092.42 -54208338.37 -50283896.98 -46510055.15 -44116440.53 -44035937.63 -46670446.98 -51825425.07 -58862100.43 -66979722.44 -75457688.12 -83729403.58 -91296505.93 -97615013.82 -102096131.4
-104794447.1 -105257437.3 -102811208.4 -98136066.34 -92120486.32 -85608541.47 -79264029.95 -73581563.91 -68965433.12 -65764494 -64209018.5 -64287754.69 -65657504.44 -67659601.48 -69450842.25 -70193198.53 -69226137.59 -66169767.28 -60949638.54 -53764954.26 -45028175.37 -35292283.86 -25167944.69 -15228618.54 -5909572.973 2579865.805 10302716.93 17574687.24 24869984.04 32667180.37 41270979.38 50659099.15 60406465.52 69729076.26 77662612.1 83344089.84 86309767.98 86687878.24 85183499.3 82834674.29 80630363.92 79156946.17 78426718.6 77940801.07 76914164.22 74525531.97 70088281.91 63132700.87 53461923.86 41234771.47 27054127.67 11975049.13 -2640031.959 -15403220.81 -25212430.33 -31466186.52 -34125427.26 -33659896.87 -30955033.98 -27213419.09 -23817084.91 -22103491.1 -23075725.79 -27159052.8 -34138314.54 -43322705.78 -53842204.3 -64895902.99 -75819973.68 -85989730.03 -94700778.84 -101184303.6
-100324606.5 -101249147.8 -98802667.3 -93745294.43 -87100415.49 -79881139.79 -72920907.62 -66846661.86 -62127521.36 -59097981.44 -57906234.11 -58422466.09 -60189199.05 -62474330.99 -64421652.33 -65235950.68 -64328421.15 -61382120.13 -56345405.54 -49389920.53 -40865605.62 -31260054.13 -21146630.53 -11102923.5 -1600057.019 7109310.593 15059814.37 22560969.63 30093213.22 38137049.27 46985386.86 56596375.69 66535118.43 76033661.75 84171462.83 90141157.43 93521762.31 94453682.53 93625050.2 92048625.9 90707100.24 90215490.02 90642064.96 91541877.51 92145248.19 91582983.18 89057106.57 83947434.82 75905042.32 64970563.2 51684530.97 37100134.6 22628428.99 9737403.009 -381540.5897 -7048684.515 -10171616.31 -10196076.74 -8008395.858 -4827976.841 -2062250.097 -1080575.301 -2925894.647 -8070117.585 -16342118.74 -27074884.06 -39382946.01 -52400031.44 -65350869.75 -77470600.61 -87909909.65 -95773315.53
-90936317.29 -91961917.65 -89402343.59 -84056218.95 -77007417.58 -69358647.35 -62052376.81 -55817019.44 -51183932.36 -48491172.03 -47834990.92 -49002340.88 -51454997.82 -54411325.84 -57009207.41 -58483207.03 -58285664.9 -56121955.37 -51921250.91 -45790271.63 -37985577.94 -28904620.08 -19065655.21 -9043945.29 641689.5462 9659904.615 17959602 25775427.43 33531586.38 41672482.42 50477474.2 59920818.98 69621429.85 78902393.26 86954223.1 93067375.79 96868681.18 98475369.63 98491165.53 97823513.84 97381743.79 97777498.12 99147836.17 101153391 103112932.8 104184115.6 103519232.3 100387743.8 94301911.78 85165066.57 73399899.2 59969152.3 46226013.38 33619207.01 23363197.01 16199280.25 12307983.24 11343417.56 12519288.99 14708475.52 16578248.42 16800424.18 14322443.58 8606993.539 -276495.4747 -11756608.28 -24990906.8 -39078602.36 -53143761.78 -66295577.12 -77579575.13 -86042511.62
-77364908.4 -78160155.7 -75418149.87 -69924554.36 -62743410.6 -54981634.96 -47621601.97 -41452705.24 -37059549.85 -34802802.67 -34767024.5 -36707898.25 -40057722.94 -44021815.47 -47742091.97 -50461879.03 -51628303.04 -50910911.92 -48165095.13 -43391952.43 -36729965.1 -28473610.13 -19080362.14 -9124475.418 813962.3027 10292635.4 19122545.48 27399718.37 35433178.24 43594957.25 52148631.34 61116368.19 70226051.17 78954005.61 86655042.27 92749986 96919186.69 99235044.45 100173048.2 100480132.2 100940448.2 102128554.5 104244461 107077980.7 110083051.7 112503003.9 113499141.5 112277544.9 108235931.7 101132707.1 91229137.66 79323370.96 66622487.55 54477158.17 44077494.08 36222095.22 31216785.31 28882498.59 28614903.27 29463124.76 30244843.23 29731005.54 26890660.27 21120308.54 12357556.34 1029933.546 -12115289.1 -26189902.88 -40261087.83 -53362038.62 -64496915.81 -72728727.59
-60882068.2 -61171517.53 -58214841.84 -52735594.12 -45708688.4 -38170495.51 -31077291.04 -25233008.08 -21255008.79 -19533944.5 -20175095.27 -22952095.13 -27320378.62 -32512229.43 -37687597.86 -42081348.18 -45092775.57 -46302251.55 -45444121.99 -42384048.8 -37131701.99 -29880388.54 -21032432.11 -11166103.3 -929562.6573 9108960.821 18595221.88 27449566.9 35828894.07 44008275.26 52231412.16 60584714.56 68934140.02 76940389.98 84147030.3 90118996.74 94593130.09 97590635.35 99444141.78 100718050.4 102044151.2 103932492.2 106625593.5 110036352 113766703.5 117176949.7 119480944 119866294.2 117649726.8 112456298.9 104370959.8 93989951.1 82326395.27 70590035.17 59921885.43 51177182.37 44808085.91 40837382.61 38883547.4 38213533.97 37836010.6 36659722.12 33709214.96 28338382.32 20359874.05 10043008.92 -1996500.528 -14938927.57 -27865199.62 -39811596.29 -49820342.87 -57040171.8
-43067376.55 -42639269.16 -39451764.94 -34131261.67 -27517371.54 -20522985.75 -14024473.33 -8793460.304 -5448573.32 -4400570.215 -5788564.443 -9435246.344 -14857599.84 -21347346.78 -28097921.73 -34329790.56 -39371512.43 -42685714.18 -43864277.37 -42631208.07 -38875933.48 -32706035.42 -24480645.9 -14783711.31 -4322909.776 6220465.778 16336661.81 25772621.48 34528480.52 42774631.28 50727754.66 58532814.34 66187789.99 73529243.4 80278885.63 86136676.06 90893185.3 94524303.95 97231422.26 99406060.79 101526642.8 104022595.4 107150983.8 110918297.4 115056234.9 119044196.9 122172281.2 123648055.4 122749224.8 119002531.2 112338697.7 103160585.2 92285493.63 80774449.9 69709402.91 59992243.47 52212268.95 46586030.79 42948913.38 40784782.88 39301726.86 37568116.08 34699669.67 30051109.48 23348468.58 14720197.93 4634435.24 -6209673.16 -16985962.47 -26822564.26 -34879183.54 -40446618.05
-25538186.95 -24252112.12 -20818788.77 -15753271.78 -9741428.487 -3545877.196 2072945.554 6416238.42 8900507.69 9118929.827 6906221.752 2383518.838 -4043695.388 -11744104.49 -19958064.12 -27899209.98 -34829582.36 -40100241.05 -43173819.3 -43654484.95 -41338067.71 -36269628.86 -28775451.94 -19436293.62 -8990947.568 1808230.124 12341723.45 22222322.99 31318485.33 39703042.54 47554606.48 55049895.28 62280716.48 69216154.26 75715749.42 81586290.83 86663409.97 90890628.62 94366831.87 97342136.07 100160353.8 103165573.3 106600844.4 110524603 114760516.3 118888412.8 122282443 124202423.9 123935631.8 120965761 115123151 106663296.9 96240106.37 84779602.57 73296885.17 62712813.73 53712498.15 46660271.34 41566770.04 38102895.04 35663979.14 33487889.75 30814334.86 27048843.6 21883824.9 15343384.69 7751203.823 -350066.2264 -8292529.648 -15370325.28 -20921994.86 -24416360.24
-9720824.328 -7525705.135 -3837295.608 934414.2337 6250781.088 11501895.34 16059597.15 19326005.74 20785369.84 20064179.17 16992478.72 11647917.23 4363307.324 -4309298.328 -13667281.19 -22936710.36 -31342251.93 -38161360.93 -42770863.27 -44698533.5 -43683064.83 -39729058.92 -33131325.55 -24444786.28 -14393866.75 -3739998.459 6855328.244 16931485.94 26267021 34852009.25 42812594.57 50317385.35 57495208.4 64385341.03 70929648.59 77004263.3 82477964.95 87276709.77 91431290.92 95090022.02 98489811.09 101892527.6 105503441.5 109391757.7 113431429.7 117277248.8 120388204 122104617.6 121773652.5 118899907.9 113281587.3 105089125.1 94858207.32 83397764.74 71641583.26 60485754.23 50649117.87 42577829.7 36400567.3 31934618.72 28742128.64 26231854.26 23790688 20915986.62 17314938.14 12947338.06 8009177.31 2874074.279 -1983213.102 -6063466.922 -8913704.45 -10191681.07
3293836.725 6336409.89 10260198.07 14740125.61 19361323.94 23650777.85 27110967.8 29257304.54 29663292.59 28013751.43 24158733.71 18154457.42 10277797.54 1008518.034 -9015886.766 -19060651.47 -28357658.82 -36167330.73 -41839762.25 -44877658.85 -44997705.01 -42177678.61 -36670979.45 -28973883.41 -19744093.25 -9686483.386 565041.3247 10538373.86 19965005.9 28767740.19 37005804.24 44799308.41 52257102.17 59427210.66 66280205.79 72725879.45 78654428.25 83986692.93 88715496.73 92922881.87 96765481.61 100429885.8 104068400.4 107730865.4 111309902 114515895.1 116894300.4 117890453.6 116955225.6 113670666.2 107863742.5 99674880.09 89559226.79 78218830.58 66484544.57 55178658.52 44989448.94 36380147.4 29543744.02 24406313.11 20675447.91 17924389.66 15695250.37 13598771.92 11387854.42 8990031.928 6497509.313 4125760.941 2157162.134 883624.5313 555768.6611 1341238.423
12823131.66 16525413.64 20606628.87 24802165.24 28790822.75 32210844.89 34680615.92 35826246.48 35317775.12 32912451.71 28498836.26 22132033.78 14050694.6 4670676.198 -5443734.487 -15625585.17 -25161407.76 -33352826.4 -39580611.07 -43367736.3 -44434705.27 -42736381.42 -38468400.5 -32035522.41 -23983728.76 -14909056.95 -5364213.581 4214804.558 13546192.74 22499266.52 31057892.55 39265669.75 47170761.51 54785632.91 62070702.95 68943202.59 75305252.71 81079922.15 86241986.88 90831830.78 94945946.15 98704338.64 102201876.8 105455622.9 108362551.9 110681471.4 112049168.5 112033702.6 110218007.2 106296805.5 100162967.5 91959407.7 82080698.04 71122386.11 59790412.91 48792692.29 38737075.39 30055380.07 22965046.88 17471427.24 13406307.16 10492254.56 8417941.808 6907774.001 5771301.96 4924199.44 4381098.186 4227920.858 4584690.904 5568589.022 7263151.572 9695711.051
18634120.85 22692896.22 26776950.5 30662073.79 34093397.62 36793612.72 38476019.66 38864281.7 37719501.71 34872772.62 30258510.62 23942003.45 16134722.8 7193118.405 -2400142.423 -12070580.68 -21198301.4 -29172081.85 -35446462.99 -39596201.99 -41360957.35 -40672115.4 -37654711.6 -32601321.83 -25921055.65 -18073399.48 -9501074.062 -576387.9604 8428508.405 17344091.31 26082780.18 34604792.68 42882410.57 50873164.59 58508412.65 65698489.49 72350514.71 78391302.13 83786446.94 88547858.55 92725398.7 96382957.29 99564041.92 102255615.4 104360632.1 105688998.7 105973372.8 104910611.6 102222778.8 97725177.77 91385105.88 83355718.45 73974926.01 63728133.09 53182942.64 42910640.16 33411452.02 25058186.11 18067326.7 12499928.05 8288383.021 5280392.519 3288866.077 2136454.521 1686011.503 1852885.03 2600160.294 3922076.044 5822548.917 8294901.63 11306447.55 14788941.9
20975080.96 25011546.89 28873043.21 32365020.59 35280456.22 37405153.15 38526779.56 38448864.62 37009854.71 34105705.34 29712839.89 23907255.81 16875536.71 8914574.609 418557.444 -8146306.294 -16277191.13 -23476766.14 -29297583.67 -33383497.64 -35502407.68 -35564964.3 -33625454.3 -29864013.59 -24553080.15 -18014554.99 -10576279.82 -2536336.761 5858739.121 14419714.25 23006515.46 31511588.54 39841553.34 47903298.76 55598365.4 62826332.79 69494885.72 75532087.37 80895657.27 85574884.28 89582951.22 92940339.62 95652876.91 97690144.58 98970797.85 99360528.29 98685930.51 96763799.68 93441186.34 88637988.24 82382129.18 74828250.75 66254340.33 57035948.32 47603068.73 38388751.76 29779991.04 22080168.78 15488969.59 10101298.23 5922529.666 2894318.108 923757.2761 -90923.54921 -242974.2818 390013.1188 1744018.26 3760447.19 6375872.849 9513023.441 13074931.96 16942561.86
20574896.2 24198172.64 27575991.29 30542222.46 32929460.62 34573610.62 35320806.85 35037241.67 33621763.59 31020182.99 27239350.83 22358524.61 16535495.55 10005461.37 3071574.023 -3912729.878 -10568306.66 -16519412.82 -21424134.22 -25002442.41 -27058166.73 -27491761.19 -26301998.95 -23576527.35 -19473223.55 -14196007.93 -7969701.324 -1018348.113 6449807.436 14249448.22 22218248.32 30212323.31 38100254.98 45758615.35 53070825.65 59929659.87 66242216.02 71935157.68 76957747.81 81280723.41 84890245.37 87777687.59 89927494.75 91306338.09 91857024.04 91499919.84 90143123.53 87700514.9 84114664.66 79379931.76 73560465.52 66798539.06 59310589.25 51371055.05 43286858.78 35367404.26 27895742.74 21105936.62 15169894.6 10194604.6 6228394.2 3273156.759 1298734.157 255914.0306 85584.84669 723106.6427 2098427.177 4133493.153 6738851.766 9811033.142 13231585.54 16867838.66
18564317.86 21446301.65 24102980.17 26401223.67 28212311.7 29416138.04 29906560.16 29598025.59 28433247.21 26391269.15 23494876.39 19816067.07 15478306.7 10654543.1 5560447.806 442983.9953 -4434918.069 -8812176.525 -12448000.41 -15138875.07 -16732090.96 -17134230.24 -16313736.31 -14297592.23 -11163055.15 -7026131.024 -2028851.963 3672656.174 9917825.691 16548302.58 23411719.16 30363355.99 37266789.93 43994561.37 50429503.57 56466812.22 62016386.64 67004619.76 71374765.93 75085294.31 78106170.49 80413655.56 81984788.19 82793049 82806675.49 81990661.88 80312705.89 77752411.45 74312151.2 70027374.25 64974006.82 59271013.91 53077100.92 46581725.52 39991764.85 33516043.4 27350262.31 21664618.5 16595661.06 12242920.91 8669841.229 5907773.773 3961447.176 2814389.408 2433214.792 2770297.397 3764951.641 5343663.04 7420070.381 9895303.617 12659018.25 15591165.52
16293608.28 18240334.08 20031248.61 21571179.9 22771064.97 23551300.29 23845460.92 23604323.44 22799989.5 21429755.28 19519246.78 17124279.22 14330928.06 11253429.58 8029748.517 4814929.91 1772650.082 -934352.2106 -3154093.356 -4754464.277 -5630763.101 -5710944.219 -4958185.896 -3370735.901 -979345.7434 2157117.601 5957140.319 10322363.99 15143106.35 20303208.37 25684064.15 31167898.16 36640473.51 41993426.5 47126342.88 51948562.72 56380578.83 60354829.23 63815708.88 66718742.63 69029043.62 70719379.81 71768327.13 72159047.28 71879159.08 70921972.49 69289056.72 66993780.22 64065168.81 60551255.27 56521091.01 52064773.54 47291177.96 42323496.69 37293091.65 32332456.98 27568211.83 23114972.53 19070719.53 15513944.1 12502518 10073955.99 8246589.766 7021158.388 6382423.688 6300589.822 6732486.145 7622610.441 8904196.39 10500463.01 12326146.36 14289339.38
15072146.96 16076108.29 17007368.69 17809219.94 18430092.42 18825654.36 18960908.49 18812201.81 18369029.4 17635480.92 16631158.82 15391398.93 13966651.51 12420937.21 10829371.13 9274842.22 7844030.072 6623023.462 5692860.775 5125331.777 4979358.727 5298214.381 6107743.821 7415650.27 9211798.885 11469403.17 14146898.53 17190282.35 20535707.95 24112152.9 27844027.5 31653633.92 35463421.03 39197998.66 42785880.49 46160923.14 49263428.7 52040887.93 54448364.9 56448560.72 58011636.66 59114914.67 59742595.29 59885627.66 59541831.6 58716308.99 57422102.28 55680977.08 53524142.14 50992689.03 48137545.29 45018789.64 41704265.98 38267538.08 34785327.04 31334648.99 27989906.41 24820178.61 21886909.25 19242115.39 16927161.35 14972068.16 13395279.66 12203784.7 11393499.3 10949836.05 10848418.86 11055929.6 11531092.2 12225806.41 13086440.48 14055283.16
15899113.31 16157525.07 16411134.9 16635366.98 16808456.32 16912369.53 16933642.99 16864099.16 16701398.47 16449384.68 16118184.77 15724032.63 15288798.49 14839222.78 14405873.41 14021866.28 13721408.84 13538242.92 13504073.28 13647071.66 13990541.36 14551815.1 15341440.83 16362688.2 17611385.19 19076072.57 20738445.75 22574039.79 24553105.47 26641621.2 28802386.12 30996144.32 33182695.01 35321950.73 37374912.37 39304537.46 41076486.34 42659739.05 44027084.69 45155493.23 46026386.45 46625828.99 46944661.18 46978591.71 46728261.1 46199276.51 45402207.55 44352522.22 43070435.64 41580642.35 39911907.46 38096501.45 36169478.14 34167811.22 32129420.6 30092131.98 28092620.85 26165392.84 24341848.57 22649472.02 21111169.98 19744778.37 18562740.32 17571952.93 16773774.06 16164178.29 15734050.27 15469604.37 15352920.06 15362582.88 15474420.02 15662318.7
19262611.36 19150853.34 19063910.96 18996968.52 18945842.87 18907180.64 18878622.46 18858927.42 18848051.1 18847172.66 18858667.9 18886027.21 18933719.92 19007008.89 19111721.65 19253986.62 19439945.05 19675450.71 19965770.03 20315295.9 20727287.52 21203647.39 21744745.01 22349294.19 23014288.52 23734996.7 24505016.8 25316386.18 26159741.4 27024521.25 27899204.36 28771572.44 29628989.94 30458690.98 31248065.19 31984934.66 32657815.48 33256158.39 33770564.06 34192969.9 34516805.97 34737118.47 34850659.82 34855944.79 34753272.16 34544712.03 34234058.4 33826747.52 33329742.49 32751385.33 32101218.55 31389779.11 30628368.88 29828806.55 29003167.41 28163517.6 27321650.49 26488832.84 25675568.14 24891384.26 24144651.38 23442435.65 22790392.2 22192700.39 21652042.58 21169626.48 20745250.1 20377406.88 20063427.89 19799656.7 19581651.93 19404411.41
25060104.06 25060104.06 25060104.06 25060104.06 25060104.06 25060104.06 25060104.06 25060104.06 25060104.06 25060104.06 25060104.06 25060104.06 25060104.06 25060104.06 25060104.06 25060104.06 25060104.06 25060104.06 25060104.06 25060104.06 25060104.06 25060104.06 25060104.06 25060104.06 25060104.06 25060104.06 25060104.06 25060104.06 25060104.06 25060104.06 25060104.06 25060104.06 25060104.06 25060104.06 25060104.06 25060104.06 25060104.06 25060104.06 25060104.06 25060104.06 25060104.06 25060104.06 25060104.06 25060104.06 25060104.06 25060104.06 25060104.06 25060104.06 25060104.06 25060104.06 25060104.06 25060104.06 25060104.06 25060104.06 25060104.06 25060104.06 25060104.06 25060104.06 25060104.06 25060104.06 25060104.06 25060104.06 25060104.06 25060104.06 25060104.06 25060104.06 25060104.06 25060104.06 25060104.06 25060104.06 25060104.06 25060104.06
